packages/katcn/src/icons/svg/layout11.svg

<svg xmlns="http://www.w3.org/2000/svg" fill="none" viewBox="0 0 24 24"><path fill="#000" d="M17.7 2H6.3C3.9 2 2 3.9 2 6.3v11.5C2 20.1 3.9 22 6.3 22h11.5c2.4 0 4.3-1.9 4.3-4.3V6.3C22 3.9 20.1 2 17.7 2M13 9.7h7v4.5h-7zm7-3.4v1.5h-7V4h4.7C19 4 20 5 20 6.3M4 17.7V6.3C4 5 5 4 6.3 4H11v16H6.3C5 20 4 19 4 17.7M17.7 20H13v-3.7h7v1.5c0 1.2-1 2.2-2.3 2.2"/></svg>

<svg width="24" height="24" viewBox="0 0 24 24" fill="none" xmlns="http://www.w3.org/2000/svg">
<path d="M17.7 2H6.3C3.9 2 2 3.9 2 6.3V17.8C2 20.1 3.9 22 6.3 22H17.8C20.2 22 22.1 20.1 22.1 17.7V6.3C22 3.9 20.1 2 17.7 2ZM13 9.7H20V14.2H13V9.7ZM20 6.3V7.8H13V4H17.7C19 4 20 5 20 6.3ZM4 17.7V6.3C4 5 5 4 6.3 4H11V20H6.3C5 20 4 19 4 17.7ZM17.7 20H13V16.3H20V17.8C20 19 19 20 17.7 20Z" fill="black"/>
</svg>
